X: 19591
T: Jamesy's First
R: jig
M: 6/8
K: Gmajor
|:A|GED GBd|edB dBA|GED GBd|edB A2A|
GED GBd|edB dBA|GBG AGE|DEF G2:|
|:d|gbg age|dBG AGE|gbg age|def g2 d|
gbg age|dBG AGE|DEG BdB|AGF G2:|

